projects/vfh1/img/icons/sch-spa.svg

<svg width="17" height="20" viewBox="0 0 17 20" fill="none" xmlns="http://www.w3.org/2000/svg">
<path d="M12.9809 13.3872H4.84071C4.35981 13.3872 3.95515 13.968 3.94928 14.6883C3.94342 15.4085 4.34808 16.0068 4.82312 16.0068H12.9692C13.4442 16.0068 13.8489 15.4259 13.8547 14.7057C13.8606 13.9855 13.4618 13.3872 12.9809 13.3872Z" fill="#42474D"/>
<path d="M10.8023 5.45333C10.8023 5.82578 10.6907 6.18986 10.4816 6.49946C10.2726 6.80907 9.97546 7.05027 9.62791 7.19254C9.28036 7.3348 8.898 7.37173 8.52925 7.29865C8.1605 7.22556 7.82193 7.04575 7.55643 6.78198C7.29092 6.5182 7.11041 6.18233 7.03775 5.8169C6.9651 5.45146 7.00357 5.07289 7.14828 4.72911C7.293 4.38534 7.53746 4.09184 7.85071 3.88575C8.16396 3.67966 8.53191 3.57027 8.90798 3.57142C9.15723 3.57142 9.40404 3.62013 9.63425 3.71478C9.86446 3.80942 10.0735 3.94814 10.2495 4.12297C10.4255 4.29779 10.5649 4.5053 10.6598 4.73359C10.7546 4.96188 10.803 5.20646 10.8023 5.45333Z" fill="#42474D"/>
<path d="M10.6659 8.63074H7.14709C7.09316 8.6366 7.04359 8.66281 7.00865 8.7039C6.97371 8.745 6.95608 8.79783 6.95942 8.85146V15.3917C6.95596 15.4459 6.9734 15.4995 7.00823 15.5415C7.04305 15.5836 7.09267 15.611 7.14709 15.6182H8.72469C8.73244 15.5753 8.7552 15.5364 8.78897 15.5084C8.82275 15.4804 8.86539 15.4651 8.90943 15.4651C8.95347 15.4651 8.99611 15.4804 9.02988 15.5084C9.06365 15.5364 9.08641 15.5753 9.09416 15.6182H10.6718C10.7262 15.611 10.7758 15.5836 10.8106 15.5415C10.8454 15.4995 10.8629 15.4459 10.8594 15.3917V8.85146C10.8627 8.79692 10.8443 8.74329 10.8081 8.70204C10.7719 8.66079 10.7209 8.6352 10.6659 8.63074Z" fill="#42474D"/>
<path d="M14.683 13.7012L14.4074 13.4979C13.9244 13.1019 13.4894 12.6516 13.1113 12.1562C12.8414 11.7819 12.6151 11.3786 12.4369 10.9539C12.2961 10.5938 12.1847 10.2278 12.0146 9.87352C11.6638 9.08952 11.0591 8.44367 10.2962 8.03808C10.0576 7.91768 9.80287 7.83163 9.5397 7.78252C9.39905 7.75207 9.25554 7.73649 9.11158 7.73605H8.85939C8.71417 7.73375 8.569 7.74347 8.4254 7.76509C8.15953 7.80312 7.90071 7.87943 7.65713 7.99162C6.87937 8.35786 6.24766 8.97124 5.86254 9.73413C5.68073 10.0768 5.55171 10.4369 5.39923 10.7971C5.20167 11.2101 4.95772 11.5998 4.67201 11.9587C4.27537 12.4435 3.82041 12.8785 3.31726 13.254C3.22664 13.3206 3.13269 13.3826 3.03576 13.4399C2.86287 13.5396 2.73612 13.7023 2.68245 13.8932C2.62878 14.0841 2.65243 14.2882 2.74838 14.4621C2.84693 14.6341 3.0101 14.7605 3.20235 14.8138C3.3946 14.8671 3.60033 14.843 3.7747 14.7467C4.19405 14.487 4.58689 14.1874 4.94764 13.8523C5.68726 13.1927 6.28556 12.3928 6.70705 11.4999C6.81848 11.2501 6.91232 11.0004 7.01788 10.7506C7.15019 10.4612 7.31337 10.1866 7.50465 9.93161C7.63196 9.78127 7.77335 9.64319 7.92691 9.51921C8.05502 9.42913 8.19268 9.35317 8.33744 9.29269C8.45218 9.2529 8.56981 9.22183 8.68932 9.19975H8.93563C8.98238 9.20535 9.02964 9.20535 9.07638 9.19975H9.18195C9.30243 9.22305 9.4203 9.25807 9.53383 9.3043C9.67228 9.37317 9.80385 9.45485 9.92677 9.54826C10.0783 9.67704 10.2159 9.8211 10.3373 9.97808C10.5162 10.2409 10.6675 10.5212 10.7889 10.8145C10.8886 11.0701 10.9707 11.3256 11.0704 11.5754C11.4566 12.4877 12.0274 13.312 12.7477 13.9975C13.0933 14.3484 13.4724 14.6655 13.8796 14.9442C13.9643 14.9957 14.0584 15.0302 14.1566 15.0456C14.2547 15.0611 14.355 15.0572 14.4517 15.0343C14.5483 15.0114 14.6395 14.9698 14.72 14.912C14.8004 14.8542 14.8686 14.7813 14.9206 14.6974C14.9725 14.6135 15.0073 14.5202 15.0229 14.423C15.0385 14.3258 15.0347 14.2265 15.0115 14.1308C14.9884 14.035 14.9464 13.9447 14.888 13.8651C14.8297 13.7854 14.756 13.7179 14.6713 13.6664L14.683 13.7012Z" fill="#42474D"/>
</svg>

<svg width="17" height="20" fill="none" xmlns="http://www.w3.org/2000/svg"><path d="M12.98 13.387H4.84c-.48 0-.885.581-.89 1.301-.007.72.398 1.319.873 1.319h8.146c.475 0 .88-.581.886-1.301.006-.72-.393-1.319-.874-1.319zm-2.178-7.934c0 .373-.111.737-.32 1.046a1.91 1.91 0 01-.854.694 1.917 1.917 0 01-2.072-.411 1.865 1.865 0 01-.408-2.053c.145-.344.39-.637.703-.843a1.913 1.913 0 011.783-.171 1.896 1.896 0 011.026 1.019c.095.228.143.472.142.72z" fill="#42474D"/><path d="M10.666 8.63H7.147a.212.212 0 00-.138.074.208.208 0 00-.05.147v6.54a.217.217 0 00.188.226h1.578a.186.186 0 01.184-.152.189.189 0 01.185.153h1.578a.217.217 0 00.187-.226v-6.54a.207.207 0 00-.05-.15.212.212 0 00-.143-.071z" fill="#42474D"/><path d="M14.683 13.701l-.276-.203a8.054 8.054 0 01-1.296-1.342 6.074 6.074 0 01-.674-1.202c-.14-.36-.252-.726-.422-1.08a3.871 3.871 0 00-1.719-1.836 2.833 2.833 0 00-.756-.255 2.053 2.053 0 00-.428-.047h-.253a2.776 2.776 0 00-1.202.256c-.778.366-1.41.98-1.794 1.742-.182.343-.311.703-.464 1.063a6.073 6.073 0 01-.727 1.162c-.397.485-.852.92-1.355 1.295-.09.067-.184.129-.281.186a.754.754 0 00-.287 1.022.763.763 0 001.026.285c.419-.26.812-.56 1.173-.895A7.366 7.366 0 006.707 11.5c.111-.25.205-.5.31-.75.133-.289.296-.563.488-.818.127-.15.268-.289.422-.413.128-.09.266-.166.41-.226.115-.04.233-.071.352-.093h.247a.592.592 0 00.14 0h.106c.12.023.238.058.352.104.138.07.27.15.393.244.151.129.289.273.41.43.18.263.33.543.452.837.1.255.182.51.281.76a7.241 7.241 0 001.678 2.423c.345.35.724.668 1.132.946a.76.76 0 001.143-.521.741.741 0 00-.352-.757l.012.035z" fill="#42474D"/></svg>
